!!!OTL: Röschen (127c), S. 292
!!!id: T0297
**kern
*clefG2
*k[f#]
*G:
{8g
8a
=1
4.b
8g
8a
8g
=2
8f#
8e}
4r
=3
{8ee
8ee
=4
4.dd
8b
8g
8a
=5
4b}
4r
=6
{8b
8b
=7
4.b
8g
8a
8g
=8
8f#
8e}
4r
=9
{8a
8b
=10
4.dd
8cc
8e
8f#
=11
4g}
8r
=12
{8d
8g
8a
=13
4.b
8g
8a
8g
=14
8f#
8e}
8r
=15
{8e
8a
8b
=16
4.dd
8cc
8e
8f#
=17
4g}
4r
==
*-
!!!minrhy: 8
!!!meters: 3/4 ]  ZZ[6
!!!cut: Röschen (127c), S. 292
!!!reg: Luxemburg
!!!trd: Singendes Volk, Esch-Alzette 1937 posth.
!!!rhy1: XX  X_.XXX  XX0_
!!!rhy2: XX  X_.XXX  X_0_
!!!key: T0297  08  G 3/4 ]  ZZ[6
!!!mod: HEPTATONIK IONISCH]  AMBITUS[9
!!!kad: -63-61-61
!!!akz: 3-7_53_3-7_51_3-7_51_
!!!fot: 'a__b__aw_c__av_cv_
!!!for: 'a__aw_a__aw_av_aw_
!!!fok: '^d_Vd_\__~d_^a_~a_
!! PHRAS[AUFTAKTIG]
!!!fkt: Liebeslieder
!!!bem: Blascheid, hhh Johann Hitting, 1903
!! THILL, Mathias:
!! PR[33] 2K[0] 2G[19] 3K[0] 3G[0] 4A[7] 4Ü[0] 5A[0] 6K[0] 6G[0]
!! 7K[0] 7G[0] 8A[0] MEHR[0] SI[26] ABS[27] SR[19] SP[7]
!! ST[8] 2k[0] 2g[26] 3k[7] 3g[4] 4d[4] 4ü[0] 5d[0] 6k[0] 6g[0]
!! 7k[0] 7g[0] 8d[0] mehr[0] si[41] dm[-15] sr[26] sp[15]
!! 1F[48] 2F[38] 3F[0] 4F[0] LF[0] 2P[14] 3P[0] 4P[0] TRI[0] DF[3] AB[29]
!! TF[0] U3K[0] U3[0] U4[0] U4Ü[0] U5[14] U6K[0] U6[18] U7K[0] U7[0]
!! N1[29] N2K[0] N2[25] N3K[0] N3[14] N4[0] N4Ü[0] N5[0] N6K[0] N6[0]
!!!n7k: 0] N7[0] O1[0] O2K[0] O2[0] O3K[0] O3[0] HÖ[0
